X:185
T:Young Richard. VWMLa.185
%%VWML:Anon2-3049-p115-0
F:http://www.vwml.org/record/Anon2/3049/p115
S:Anon. MS, late 18thC, Vaughan Williams Mem. Library
N:In bar 5 of the B music, I have swapped the case of the
N:last 4 notes, i.e. they were .A(aga)|. PJH.
O:England;Yorkshire
Z:vmp/efdss.Simon Wilson. Reviewed PJH 2008.
M:2/4
L:1/16
Q:1/4=90
K:Bb
B3d f2f2|e2g2 c4|(Bd).f.b (Ac).f.a|(GB).=e.g fcAF|\
B3d f2f2|e2g2 c3e|(dB)(ec) d2!turn!c2|B2F2 B,4:|
|:"P"f3e d2d2|e2g2 !turn!g4|e3d c2c2|d2f2 !turn!f4|\
"^F".b(BAB) .a(AGA)|(gab)g f3e|(ed).c.B c2A2|B4 B,4:|
